docs/public/badges/minimal/cozy-minimal_vector.svg

<svg width="56" height="56" viewBox="0 0 56 56" fill="none" xmlns="http://www.w3.org/2000/svg">
<rect width="56" height="56" rx="8.4" fill="black"/>
<rect x="1.05" y="1.05" width="53.9" height="53.9" rx="7.35" stroke="url(#paint0_linear_1_62)" stroke-opacity="0.88" stroke-width="2.1"/>
<g filter="url(#filter0_d_1_62)">
<path d="M32.7732 44.125C32.2482 43.9404 31.7617 43.7175 31.3139 43.4561C30.8662 43.1946 30.4261 42.8948 29.9936 42.5565L28.2332 43.1101C27.6773 43.2946 27.1214 43.2869 26.5655 43.087C26.0096 42.8871 25.5772 42.5257 25.2683 42.0029L24.7585 41.1264C24.4498 40.6036 24.3417 40.0423 24.4342 39.4426C24.5267 38.8429 24.8046 38.3432 25.268 37.9434L26.6578 36.7439C26.5962 36.1904 26.5654 35.6368 26.5654 35.0832C26.5654 34.5296 26.5962 33.9761 26.6578 33.4225L25.268 32.1769C24.8049 31.7771 24.5269 31.2851 24.4342 30.7007C24.3417 30.1164 24.4498 29.5628 24.7585 29.04L25.2683 28.1635C25.5769 27.6407 26.0093 27.2793 26.5655 27.0794C27.1214 26.8795 27.6773 26.8718 28.2332 27.0563L29.9936 27.6099C30.426 27.2716 30.8661 26.9718 31.3139 26.7104C31.7617 26.4489 32.2481 26.226 32.7732 26.0415L33.1899 24.1501C33.3136 23.5657 33.5993 23.089 34.047 22.72C34.4947 22.3509 35.0275 22.1664 35.6452 22.1664H36.757C37.3747 22.1664 37.9074 22.3509 38.3553 22.72C38.803 23.089 39.0887 23.5657 39.2123 24.1501L39.629 26.0415C40.154 26.226 40.6405 26.4489 41.0883 26.7104C41.536 26.9718 41.9762 27.2716 42.4086 27.6099L44.169 27.0563C44.7249 26.8718 45.2809 26.8795 45.8368 27.0794C46.3927 27.2793 46.825 27.6407 47.1339 28.1635L47.6438 29.04C47.9524 29.5628 48.0605 30.1241 47.968 30.7238C47.8755 31.3235 47.5976 31.8233 47.1342 32.2231L45.7444 33.4225C45.806 33.9761 45.8369 34.5296 45.8369 35.0832C45.8369 35.6368 45.806 36.1904 45.7444 36.7439L47.1342 37.9895C47.5974 38.3893 47.8753 38.8814 47.968 39.4657C48.0605 40.05 47.9524 40.6036 47.6438 41.1264L47.1339 42.0029C46.8253 42.5257 46.3929 42.8871 45.8368 43.087C45.2809 43.2869 44.7249 43.2946 44.169 43.1101L42.4086 42.5565C41.9763 42.8948 41.5362 43.1946 41.0883 43.4561C40.6405 43.7175 40.1541 43.9404 39.629 44.125L39.2123 46.0164C39.0886 46.6007 38.8029 47.0774 38.3553 47.4464C37.9075 47.8155 37.3747 48 36.757 48H35.6452C35.0275 48 34.4948 47.8155 34.047 47.4464C33.5992 47.0774 33.3135 46.6007 33.1899 46.0164L32.7732 44.125ZM36.2013 40.619C37.7455 40.619 39.0581 40.0808 40.139 39.0044C41.22 37.928 41.7604 36.6209 41.7604 35.0832C41.7604 33.5455 41.22 32.2385 40.139 31.1621C39.0581 30.0857 37.7455 29.5475 36.2013 29.5475C34.6571 29.5475 33.3446 30.0857 32.2636 31.1621C31.1826 32.2385 30.6421 33.5455 30.6421 35.0832C30.6421 36.6209 31.1826 37.928 32.2636 39.0044C33.3446 40.0808 34.6571 40.619 36.2013 40.619Z" fill="#F9F9F9"/>
<path d="M13.5161 36.7156C13.1803 36.5763 12.8655 36.4301 12.5719 36.2769C12.2779 36.1236 11.9772 35.9356 11.6696 35.7127L10.4527 36.0888C10.0889 36.2002 9.73223 36.1863 9.38258 36.047C9.03279 35.9077 8.76 35.6849 8.56422 35.3784L8.2286 34.7934C8.03278 34.4591 7.96278 34.0969 8.01861 33.7069C8.07446 33.3169 8.25633 32.9965 8.56422 32.7457L9.48744 31.9518C9.43159 31.5896 9.40366 31.2274 9.40366 30.8653C9.40366 30.5031 9.43159 30.1409 9.48744 29.7788L8.56422 28.9848C8.25631 28.734 8.07444 28.4206 8.01861 28.0445C7.96276 27.6684 8.03275 27.3132 8.2286 26.9789L8.60609 26.3521C8.80192 26.0456 9.06769 25.8228 9.40339 25.6835C9.73921 25.5442 10.0889 25.5303 10.4526 25.6417L11.6695 26.0178C11.9774 25.7949 12.2782 25.6069 12.5717 25.4537C12.8657 25.3004 13.1804 25.1542 13.516 25.0149L13.7678 23.803C13.8516 23.413 14.0405 23.0996 14.3344 22.8628C14.6279 22.626 14.9706 22.5076 15.3625 22.5076H16.034C16.4256 22.5076 16.7683 22.6329 17.0621 22.8837C17.356 23.1344 17.5449 23.4548 17.6286 23.8448L17.8805 25.0149C18.2163 25.1542 18.531 25.3004 18.8247 25.4537C19.1182 25.6069 19.419 25.7949 19.7269 26.0178L20.9439 25.6417C21.3076 25.5303 21.6644 25.5442 22.0141 25.6835C22.3638 25.8228 22.6366 26.0456 22.8323 26.3521L23.168 26.9371C23.3638 27.2714 23.4338 27.6336 23.378 28.0236C23.3221 28.4137 23.1402 28.734 22.8323 28.9848L21.9091 29.7788C21.965 30.1409 21.9929 30.5031 21.9929 30.8653C21.9929 31.2274 21.965 31.5896 21.9091 31.9518L22.8323 32.7457C23.1403 32.9965 23.3221 33.3099 23.378 33.686C23.4338 34.0621 23.3638 34.4173 23.168 34.7516L22.7905 35.3784C22.5946 35.6849 22.3289 35.9077 21.9931 36.047C21.6573 36.1863 21.3076 36.2003 20.944 36.0888L19.727 35.7127C19.4191 35.9356 19.1183 36.1236 18.8248 36.2769C18.5308 36.4301 18.2161 36.5763 17.8805 36.7156L17.6287 37.9275C17.5449 38.3175 17.356 38.6309 17.0621 38.8677C16.7686 39.1045 16.4259 39.2229 16.034 39.2229H15.3625C14.9709 39.2229 14.6282 39.0976 14.3344 38.8469C14.0405 38.5961 13.8516 38.2757 13.7679 37.8857L13.5161 36.7156ZM15.6983 34.2083C16.6215 34.2083 17.4118 33.881 18.0693 33.2263C18.7268 32.5716 19.0555 31.7846 19.0555 30.8652C19.0555 29.9459 18.7268 29.1589 18.0693 28.5042C17.4118 27.8495 16.6215 27.5222 15.6983 27.5222C14.7751 27.5222 13.9847 27.8495 13.3273 28.5042C12.6698 29.1589 12.341 29.9459 12.341 30.8652C12.341 31.7846 12.6698 32.5716 13.3273 33.2263C13.9847 33.881 14.7751 34.2083 15.6983 34.2083Z" fill="#F9F9F9"/>
<path d="M25.5528 8.2287C25.1819 8.32765 24.8893 8.53291 24.675 8.84454C24.4606 9.15623 24.3634 9.50734 24.3835 9.89782L24.4431 11.0695C24.1606 11.2862 23.8999 11.5042 23.6609 11.7234C23.422 11.9427 23.185 12.1967 22.9502 12.4856L21.7021 12.437C21.3293 12.4234 20.9949 12.5267 20.6993 12.7469C20.4036 12.9672 20.2021 13.2472 20.0948 13.5869L19.9261 14.2256C19.8259 14.5916 19.8519 14.9522 20.0041 15.3074C20.1564 15.6626 20.4102 15.9201 20.7656 16.0797L21.8422 16.5983C21.8816 16.9553 21.9474 17.3053 22.0397 17.6482C22.132 17.9912 22.2507 18.3271 22.3958 18.6559L21.7239 19.641C21.4962 19.9562 21.4039 20.299 21.4469 20.6692C21.4898 21.0394 21.6466 21.3581 21.9172 21.6252L22.4344 22.1233C22.6979 22.364 23.0064 22.5079 23.3598 22.555C23.7132 22.6021 24.0479 22.5269 24.3638 22.3295L25.4204 21.6658C25.7688 21.799 26.1014 21.9012 26.4185 21.9722C26.7358 22.043 27.0712 22.1019 27.4244 22.149L27.9716 23.2329C28.1503 23.5811 28.4091 23.8302 28.7477 23.9801C29.086 24.1302 29.4406 24.1557 29.8117 24.0567L30.4475 23.887C30.8184 23.7881 31.111 23.5828 31.3253 23.2712C31.5397 22.9595 31.6369 22.6084 31.6168 22.2179L31.5571 21.0463C31.8396 20.8295 32.1004 20.6116 32.3394 20.3923C32.5787 20.173 32.8155 19.9188 33.0499 19.6301L34.2982 19.6788C34.671 19.6924 35.0053 19.5891 35.3009 19.3689C35.5966 19.1486 35.798 18.8686 35.9053 18.5289L36.0741 17.8902C36.1744 17.5241 36.1484 17.1635 35.9962 16.8083C35.8439 16.4531 35.59 16.1957 35.2345 16.036L34.1581 15.5175C34.1187 15.1604 34.0529 14.8104 33.9606 14.4675C33.8683 14.1246 33.7496 13.7887 33.6044 13.4599L34.2763 12.4748C34.504 12.1596 34.5964 11.8168 34.5534 11.4466C34.5105 11.0763 34.3537 10.7577 34.0831 10.4906L33.5659 9.99247C33.3024 9.75176 32.9939 9.60782 32.6405 9.56074C32.287 9.51369 31.9524 9.58885 31.6365 9.78626L30.5799 10.4498C30.2315 10.3166 29.8989 10.2145 29.5818 10.1436C29.2644 10.0728 28.9291 10.0139 28.5759 9.96677L28.0287 8.88281C27.85 8.53466 27.5912 8.28558 27.2526 8.13561C26.9143 7.98554 26.5597 7.96003 26.1886 8.05904L25.5528 8.2287ZM27.1483 12.8923C28.0225 12.659 28.8543 12.7693 29.6437 13.2231C30.4331 13.6769 30.9449 14.3391 31.1791 15.2096C31.4134 16.0802 31.3026 16.9085 30.8469 17.6945C30.3911 18.4806 29.7262 18.9902 28.8519 19.2235C27.9777 19.4568 27.1459 19.3464 26.3566 18.8926C25.5672 18.4388 25.0554 17.7766 24.8212 16.9061C24.5869 16.0356 24.6977 15.2073 25.1534 14.4212C25.6091 13.6352 26.2741 13.1255 27.1483 12.8923Z" fill="#F9F9F9"/>
</g>
<defs>
<filter id="filter0_d_1_62" x="2.28571" y="2.28571" width="51.4286" height="51.4286" filterUnits="userSpaceOnUse" color-interpolation-filters="sRGB">
<feFlood flood-opacity="0" result="BackgroundImageFix"/>
<feColorMatrix in="SourceAlpha" type="matrix" values="0 0 0 0 0 0 0 0 0 0 0 0 0 0 0 0 0 0 127 0" result="hardAlpha"/>
<feOffset/>
<feGaussianBlur stdDeviation="2.85714"/>
<feComposite in2="hardAlpha" operator="out"/>
<feColorMatrix type="matrix" values="0 0 0 0 0 0 0 0 0 0 0 0 0 0 0 0 0 0 0.25 0"/>
<feBlend mode="normal" in2="BackgroundImageFix" result="effect1_dropShadow_1_62"/>
<feBlend mode="normal" in="SourceGraphic" in2="effect1_dropShadow_1_62" result="shape"/>
</filter>
<linearGradient id="paint0_linear_1_62" x1="0" y1="28" x2="56" y2="28" gradientUnits="userSpaceOnUse">
<stop stop-color="#62883F"/>
<stop offset="0.345" stop-color="#CD3935"/>
<stop offset="0.675" stop-color="#A85551"/>
<stop offset="1" stop-color="#BF873E"/>
</linearGradient>
</defs>
</svg>

<svg xmlns="http://www.w3.org/2000/svg" width="56" height="56" fill="none"><rect width="56" height="56" fill="#000" rx="8.4"/><rect width="53.9" height="53.9" x="1.05" y="1.05" stroke="url(#a)" stroke-opacity=".88" stroke-width="2.1" rx="7.35"/><g fill="#F9F9F9" filter="url(#b)"><path d="M32.77 44.13a8.44 8.44 0 0 1-1.46-.67c-.44-.27-.88-.57-1.32-.9l-1.76.55a2.48 2.48 0 0 1-2.96-1.1l-.51-.88a2.48 2.48 0 0 1-.33-1.69c.1-.6.37-1.1.84-1.5l1.39-1.2a15 15 0 0 1 0-3.32l-1.4-1.24a2.43 2.43 0 0 1-.5-3.14l.5-.88a2.5 2.5 0 0 1 2.97-1.1l1.76.55a9.28 9.28 0 0 1 2.78-1.57l.42-1.89a2.46 2.46 0 0 1 2.46-1.98h1.1a2.43 2.43 0 0 1 2.46 1.98l.42 1.9c.52.18 1.01.4 1.46.66.45.26.89.56 1.32.9l1.76-.55a2.48 2.48 0 0 1 2.96 1.1l.51.88a2.47 2.47 0 0 1-.51 3.18l-1.39 1.2a15 15 0 0 1 0 3.32l1.4 1.25a2.45 2.45 0 0 1 .5 3.14l-.5.87a2.48 2.48 0 0 1-2.96 1.1l-1.77-.54a14 14 0 0 1-1.32.9c-.45.26-.94.48-1.46.66l-.42 1.9A2.46 2.46 0 0 1 36.76 48h-1.11a2.43 2.43 0 0 1-2.46-1.98l-.42-1.9Zm3.43-3.51c1.55 0 2.86-.54 3.94-1.62a5.33 5.33 0 0 0 1.62-3.92c0-1.53-.54-2.84-1.62-3.92a5.37 5.37 0 0 0-3.94-1.61 5.4 5.4 0 0 0-3.94 1.61 5.33 5.33 0 0 0-1.62 3.92c0 1.54.54 2.85 1.62 3.92a5.37 5.37 0 0 0 3.94 1.62Zm-22.68-3.9a7.29 7.29 0 0 1-1.85-1l-1.22.37a1.68 1.68 0 0 1-1.89-.71l-.33-.59c-.2-.33-.27-.7-.21-1.08.05-.4.24-.71.54-.96l.93-.8a7.12 7.12 0 0 1 0-2.17l-.93-.8c-.3-.25-.49-.56-.54-.94-.06-.37.01-.73.2-1.06l.39-.63c.2-.3.46-.53.8-.67a1.5 1.5 0 0 1 1.04-.04l1.22.38a7.33 7.33 0 0 1 1.85-1l.25-1.22a1.6 1.6 0 0 1 1.6-1.3h.66c.4 0 .74.13 1.03.38.3.25.48.57.57.96l.25 1.17a7.33 7.33 0 0 1 1.85 1l1.21-.37a1.68 1.68 0 0 1 1.89.71l.34.59c.2.33.26.7.2 1.08-.05.4-.23.71-.54.96l-.92.8a7.11 7.11 0 0 1 0 2.17l.92.8c.31.25.5.56.55.94.05.37-.02.73-.21 1.06l-.38.63c-.2.3-.46.53-.8.67a1.5 1.5 0 0 1-1.05.04l-1.21-.38a7.35 7.35 0 0 1-1.85 1l-.25 1.22a1.6 1.6 0 0 1-1.6 1.3h-.67c-.39 0-.73-.13-1.03-.38a1.7 1.7 0 0 1-.56-.96l-.25-1.17Zm2.18-2.51c.92 0 1.71-.33 2.37-.98.66-.66.99-1.45.99-2.36a3.2 3.2 0 0 0-1-2.37 3.24 3.24 0 0 0-2.36-.98c-.92 0-1.72.33-2.37.98a3.21 3.21 0 0 0-.99 2.37c0 .91.33 1.7.99 2.36.65.65 1.45.98 2.37.98Zm9.85-25.98c-.37.1-.66.3-.88.61-.2.32-.3.67-.29 1.06l.06 1.17a7.17 7.17 0 0 0-1.5 1.42l-1.24-.05a1.6 1.6 0 0 0-1.6 1.15l-.17.64c-.1.36-.08.72.07 1.08.16.35.41.61.77.77l1.07.52a6.98 6.98 0 0 0 .56 2.06l-.68.98c-.22.32-.32.66-.27 1.03.04.37.2.69.47.96l.51.5c.27.23.58.38.93.43.35.04.69-.03 1-.23l1.06-.66a7.23 7.23 0 0 0 2 .48l.55 1.08a1.57 1.57 0 0 0 1.84.83l.64-.17c.37-.1.66-.3.88-.62.21-.31.3-.66.29-1.05l-.06-1.17c.28-.22.54-.44.78-.66.24-.22.48-.47.71-.76l1.25.05a1.64 1.64 0 0 0 1.6-1.15l.17-.64c.1-.37.08-.73-.07-1.08a1.45 1.45 0 0 0-.77-.77l-1.07-.52a6.98 6.98 0 0 0-.56-2.06l.68-.99c.22-.31.32-.65.27-1.02-.04-.37-.2-.7-.47-.96l-.51-.5a1.67 1.67 0 0 0-.93-.43c-.35-.05-.69.03-1 .23l-1.06.66a7.21 7.21 0 0 0-2-.48l-.55-1.09a1.57 1.57 0 0 0-1.84-.82l-.64.17Zm1.6 4.66c.87-.23 1.7-.12 2.5.33a3.2 3.2 0 0 1 1.53 1.99c.23.87.12 1.7-.33 2.48a3.17 3.17 0 0 1-2 1.53c-.87.24-1.7.13-2.5-.33a3.16 3.16 0 0 1-1.53-1.98 3.2 3.2 0 0 1 .33-2.49 3.17 3.17 0 0 1 2-1.53Z"/></g><defs><linearGradient id="a" x1="0" x2="56" y1="28" y2="28" gradientUnits="userSpaceOnUse"><stop stop-color="#62883F"/><stop offset=".34" stop-color="#CD3935"/><stop offset=".68" stop-color="#A85551"/><stop offset="1" stop-color="#BF873E"/></linearGradient><filter id="b" width="51.43" height="51.43" x="2.29" y="2.29" color-interpolation-filters="sRGB" filterUnits="userSpaceOnUse"><feFlood flood-opacity="0" result="BackgroundImageFix"/><feColorMatrix in="SourceAlpha" result="hardAlpha" values="0 0 0 0 0 0 0 0 0 0 0 0 0 0 0 0 0 0 127 0"/><feOffset/><feGaussianBlur stdDeviation="2.86"/><feComposite in2="hardAlpha" operator="out"/><feColorMatrix values="0 0 0 0 0 0 0 0 0 0 0 0 0 0 0 0 0 0 0.25 0"/><feBlend in2="BackgroundImageFix" result="effect1_dropShadow_1_62"/><feBlend in="SourceGraphic" in2="effect1_dropShadow_1_62" result="shape"/></filter></defs></svg>
